data/playwrite-au-nsw.svg

<svg width="144.72" height="27.048" viewBox="0 0 144.72 27.048" xmlns="http://www.w3.org/2000/svg"><path transform="translate(0 19.992) scale(.014 -.014)" d="m116-14q-47 0-39 30l274 954q4 14 16 21t34 7h180q101 0 168.5-24t101.5-72.5 34-123.5q0-84-31-147.5t-89-107.5-137.5-72-175.5-40q-43-6-89-8.5t-88-3.5l-110-385q-5-14-15.5-21t-33.5-7zm182 493q26 0 56 1.5t60.5 4.5 58.5 6q102 17 174 52t110 91 38 134q0 54-24 86.5t-73.5 48-128.5 15.5h-145z"/><path transform="translate(10.878 19.992) scale(.014 -.014)" d="m129-15q-55 0-70.5 42.5t9.5 124.5l242 832q6 19 16 25t29 6q30 0 38.5-9t2.5-29l-256-874q-6-21-3.5-31.5t15.5-10.5q9 0 17.5 6t19 18 25.5 30q7 10 15.5 12t19.5-6q16-9 19.5-19t-1.5-20q-20-33-41.5-55t-46-32-50.5-10z"/><path transform="translate(15.064 19.992) scale(.014 -.014)" d="m157-17q-36 0-63 19t-41.5 54.5-14.5 83.5q0 47 13.5 99t40.5 101.5 66 90 89 64.5 112 24q29 0 60.5-7.5t61.5-21.5l1 4q5 13 15 17t27 4q30 0 39-9t3-29l-112-374q-5-18-5-27t4-12 9-3q10 0 20 6.5t22 18.5 25 29q8 10 16 12t19-6q16-10 19.5-19.5t-1.5-20.5q-9-16-28.5-39t-47-40-63.5-17q-35 0-53 15.5t-22 39 0.5 51 11.5 51.5q2 4 2.5 8t0.5 9q-39-59-78-98t-76.5-58.5-71.5-19.5zm-28 172q0-28 6-49t18.5-32 29.5-11q35 0 79 37.5t91.5 109 96.5 174.5l10 34q-32 14-60.5 18t-51.5 4q-41 0-75.5-18.5t-61-49.5-45-69-28-76.5-9.5-71.5z"/><path transform="translate(23.772 19.992) scale(.014 -.014)" d="m158-15q-45 0-71 21.5t-30 65 15 107.5l89 305q6 19 15.5 25t28.5 6q30 0 39-9t3-29l-95-318q-8-25-9.5-47t8.5-34.5 37-12.5q35 0 75 29.5t81 82.5 80.5 125.5 72.5 159.5l4 22q6 19 16 25t29 6q30 0 39-9t2-29l-218-751q-26-92-57-145.5t-75.5-76-113.5-22.5q-36 0-68 8.5t-59.5 24-48.5 32.5q-16 14-21 27.5t15 31.5q18 15 29 16.5t27-13.5q28-22 59.5-36t71.5-14q42 0 70 16.5t48 53.5 38 99l133 461q-30-50-61.5-88t-64.5-64-66.5-39-66.5-13z"/><path transform="translate(32.564 19.992) scale(.014 -.014)" d="m173-19q-44 0-68.5 18t-34 49.5-6.5 71.5 16 82l80 283q4 14 13 22.5t33 8.5q31 0 38.5-9.5t2.5-27.5l-85-293q-9-33-12.5-62t6-46 39.5-17q28 0 56.5 20.5t55 54.5 49 75.5 39.5 83.5l55 190q4 14 13 22.5t32 8.5q32 0 38.5-9.5t0.5-27.5l-75-279q-4-17-8-40.5t-2.5-46.5 13-37.5 38.5-14.5q32 0 63.5 21t58 55.5 47 77.5 32.5 88.5 12 86.5q0 10-0.5 22t-2 25.5-5.5 26.5q-4 18-0.5 30.5t13.5 18.5 25 6q19 0 30.5-11t16.5-37q4-10 6-21t2.5-22 0.5-23q0-54-15.5-112.5t-44-114-68-100-88-71-104.5-26.5q-45 0-71.5 18t-38 47.5-12.5 65.5q-24-39-52.5-68.5t-61.5-46-70-16.5z"/><path transform="translate(44.534 19.992) scale(.014 -.014)" d="m65-15q-17 0-30.5 7t-7.5 25l134 467q6 19 15.5 25t28.5 6q30 0 39-9t3-29l-47-161q30 49 60.5 87t60 64 56.5 39 49 13q27 0 47.5-13t32.5-31q8-10 6-21.5t-12-22.5q-11-11-21-16t-18 4q-10 8-22 14t-23 6q-26 0-63-28.5t-77.5-81-81-124-73.5-156.5l-9-38q-3-13-13.5-19.5t-33.5-6.5z"/><path transform="translate(50.89 19.992) scale(.014 -.014)" d="m127-15q-55 0-70 42.5t9 124.5l95 332q6 19 15.5 25t28.5 6q30 0 39-9t3-29l-109-374q-6-21-3.5-31.5t15.5-10.5q8 0 17 6t19.5 18 26.5 30q7 10 15 12t20-6q15-9 19-19t-2-20q-20-33-41.5-55t-45.5-32-51-10zm133 684q-21 0-35 13.5t-14 38.5q0 28 17 51t53 23q22 0 36-13t14-39q0-28-17-51t-54-23z"/><path transform="translate(55.09 19.992) scale(.014 -.014)" d="m162-15q-39 0-62.5 18t-28.5 54 11 88l78 275h-76q-11 0-15.5 10t0.5 30 14.5 30 21.5 10h79l58 199q6 19 15.5 25t29.5 6q30 0 39-9t2-29l-57-192h127q11 0 15.5-9.5t-0.5-30.5q-4-19-14-29.5t-21-10.5h-130l-87-295q-10-34-4.5-49t23.5-15q20 0 46.5 17t53.5 55q9 9 18 10.5t24-7.5q15-8 17.5-18t-1.5-18q-12-22-36.5-49t-59.5-46.5-80-19.5z"/><path transform="translate(60.522 19.992) scale(.014 -.014)" d="m227-19q-61 0-100 25t-57.5 68.5-18.5 96.5q0 59 20.5 120.5t59.5 113 96.5 83 131.5 31.5q48 0 79.5-15t47.5-41.5 16-63.5q0-42-25-75t-67-59-95.5-45-109.5-31.5-109-20.5l7 70q34 6 75 14.5t82 20.5 75.5 29 55 39 20.5 51q0 25-17.5 36.5t-45.5 11.5q-47 0-86-24t-65.5-63-41.5-85-15-90q0-35 10.5-62t32-41 55.5-14 61 13.5 51 36 47 48.5q12 14 27.5 10.5t26.5-14.5q10-11 11.5-23t-9.5-27q-37-47-75-74t-76-38.5-75-11.5z"/><path transform="translate(72.086 19.992) scale(.014 -.014)" d="m-6-14q-26 0-34 15t6 37l588 937q14 23 28 31.5t39 8.5q19 0 30.5-9.5t13.5-40.5l76-934q3-20-8.5-32.5t-37.5-12.5q-22 0-29 8.5t-10 28.5l-20 260h-418l-161-257q-16-26-26.5-33t-36.5-7zm275 377h361l-43 512z"/><path transform="translate(83.748 19.992) scale(.014 -.014)" d="m336-19q-66 0-110.5 23t-67.5 68.5-23 110.5 24 149l184 656q5 14 16.5 20.5t34.5 6.5 34-7 7-23l-190-663q-19-66-21.5-114.5t10.5-79.5 40.5-46.5 68.5-15.5q43 0 88 16t91 47.5 93.5 78.5 95 109 96.5 139l151 532q5 14 17.5 20.5t33.5 6.5q22 0 33-8t6-22l-277-972q-4-14-16.5-20.5t-34.5-6.5-32.5 8-6.5 20l69 244q-48-66-98-118t-102-87-105.5-53.5-108.5-18.5z"/><path transform="translate(101.7 19.992) scale(.014 -.014)" d="m112-14q-44 0-36 28l280 974q5 14 17.5 20.5t33.5 6.5q18 0 28-6.5t15-20.5l278-827 239 827q5 14 17.5 20.5t33.5 6.5q46 0 36-27l-280-974q-3-14-16-21t-34-7q-16 0-24 5t-13 23l-281 837-243-837q-4-14-16.5-21t-34.5-7z"/><path transform="translate(115.5 19.992) scale(.014 -.014)" d="m348-19q-50 0-94.5 13t-81.5 34.5-66.5 49.5-52.5 58q-8 12-3.5 22.5t15.5 19.5q14 12 25 15t21-9q26-30 61-56.5t79.5-44 96.5-17.5q55 0 101.5 13.5t81 39.5 53.5 65 19 89q0 33-10.5 60.5t-31.5 51-51 44.5-69 42q-35 19-67 39.5t-58.5 44.5-46 52.5-30.5 64.5-11 80q0 58 22 106.5t64 83.5 100 54 129 19q57 0 103-16t84-43 70-59q11-11 8.5-22t-16.5-23q-11-12-22.5-14t-22.5 6q-26 23-54.5 42.5t-64 31.5-86.5 12q-48 0-88.5-11.5t-70-33.5-46-55.5-16.5-77.5q0-36 9.5-64t29.5-51 51.5-44.5 76.5-44.5q47-24 84.5-51.5t65.5-60.5 42.5-73 14.5-89q0-65-25.5-118.5t-73-92.5-110.5-60.5-138-21.5z"/><path transform="translate(126.2 19.992) scale(.014 -.014)" d="m316-14q-19 0-31 10t-13 41l-43 933q-1 20 10.5 32t36.5 13q23 0 30.5-7t8.5-27l34-846 463 840q14 27 26.5 33.5t37.5 6.5q23 0 31-8t9-28l37-846 465 844q14 25 26.5 31.5t36.5 6.5q26-1 33-16t-6-35l-521-938q-13-22-28-31t-40-9q-19 0-30.5 10t-12.5 41l-40 810-453-821q-12-22-27.5-31t-39.5-9z"/></svg>

<?xml version="1.0" encoding="utf-8" ?>
<svg baseProfile="tiny" height="100%" version="1.2" width="100%" xmlns="http://www.w3.org/2000/svg" xmlns:ev="http://www.w3.org/2001/xml-events" xmlns:xlink="http://www.w3.org/1999/xlink"><defs /><g><path d="M116 -14Q69 -14 77 16L351 970Q355 984 367.0 991.0Q379 998 401 998H581Q682 998 749.5 974.0Q817 950 851.0 901.5Q885 853 885 778Q885 694 854.0 630.5Q823 567 765.0 523.0Q707 479 627.5 451.0Q548 423 452 411Q409 405 363.0 402.5Q317 400 275 399L165 14Q160 0 149.5 -7.0Q139 -14 116 -14ZM298 479Q324 479 354.0 480.5Q384 482 414.5 485.0Q445 488 473 491Q575 508 647.0 543.0Q719 578 757.0 634.0Q795 690 795 768Q795 822 771.0 854.5Q747 887 697.5 902.5Q648 918 569 918H424Z" transform="translate(0.0, 72) scale(0.072, -0.072)" /><path d="M129 -15Q74 -15 58.5 27.5Q43 70 68 152L310 984Q316 1003 326.0 1009.0Q336 1015 355 1015Q385 1015 393.5 1006.0Q402 997 396 977L140 103Q134 82 136.5 71.5Q139 61 152 61Q161 61 169.5 67.0Q178 73 188.5 85.0Q199 97 214 115Q221 125 229.5 127.0Q238 129 249 121Q265 112 268.5 102.0Q272 92 267 82Q247 49 225.5 27.0Q204 5 179.5 -5.0Q155 -15 129 -15Z" transform="translate(55.943999999999996, 72) scale(0.072, -0.072)" /><path d="M157 -17Q121 -17 94.0 2.0Q67 21 52.5 56.5Q38 92 38 140Q38 187 51.5 239.0Q65 291 92.0 340.5Q119 390 158.0 430.5Q197 471 247.0 495.0Q297 519 359 519Q388 519 419.5 511.5Q451 504 481 490L482 494Q487 507 497.0 511.0Q507 515 524 515Q554 515 563.0 506.0Q572 497 566 477L454 103Q449 85 449.0 76.0Q449 67 453.0 64.0Q457 61 462 61Q472 61 482.0 67.5Q492 74 504.0 86.0Q516 98 529 115Q537 125 545.0 127.0Q553 129 564 121Q580 111 583.5 101.5Q587 92 582 81Q573 65 553.5 42.0Q534 19 506.5 2.0Q479 -15 443 -15Q408 -15 390.0 0.5Q372 16 368.0 39.5Q364 63 368.5 90.5Q373 118 380 142Q382 146 382.5 150.0Q383 154 383 159Q344 100 305.0 61.0Q266 22 228.5 2.5Q191 -17 157 -17ZM129 155Q129 127 135.0 106.0Q141 85 153.5 74.0Q166 63 183 63Q218 63 262.0 100.5Q306 138 353.5 209.5Q401 281 450 384L460 418Q428 432 399.5 436.0Q371 440 348 440Q307 440 272.5 421.5Q238 403 211.5 372.0Q185 341 166.5 303.0Q148 265 138.5 226.5Q129 188 129 155Z" transform="translate(77.472, 72) scale(0.072, -0.072)" /><path d="M158 -15Q113 -15 87.0 6.5Q61 28 57.0 71.5Q53 115 72 179L161 484Q167 503 176.5 509.0Q186 515 205 515Q235 515 244.0 506.0Q253 497 247 477L152 159Q144 134 142.5 112.0Q141 90 151.0 77.5Q161 65 188 65Q223 65 263.0 94.5Q303 124 344.0 177.0Q385 230 424.5 302.5Q464 375 497 462L501 484Q507 503 517.0 509.0Q527 515 546 515Q576 515 585.0 506.0Q594 497 587 477L369 -274Q343 -366 312.0 -419.5Q281 -473 236.5 -495.5Q192 -518 123 -518Q87 -518 55.0 -509.5Q23 -501 -4.5 -485.5Q-32 -470 -53 -453Q-69 -439 -74.0 -425.5Q-79 -412 -59 -394Q-41 -379 -30.0 -377.5Q-19 -376 -3 -391Q25 -413 56.5 -427.0Q88 -441 128 -441Q170 -441 198.0 -424.5Q226 -408 246.0 -371.0Q266 -334 284 -272L417 189Q387 139 355.5 101.0Q324 63 291.0 37.0Q258 11 224.5 -2.0Q191 -15 158 -15Z" transform="translate(122.256, 72) scale(0.072, -0.072)" /><path d="M173 -19Q129 -19 104.5 -1.0Q80 17 70.5 48.5Q61 80 64.0 120.0Q67 160 80 202L160 485Q164 499 173.0 507.5Q182 516 206 516Q237 516 244.5 506.5Q252 497 247 479L162 186Q153 153 149.5 124.0Q146 95 155.5 78.0Q165 61 195 61Q223 61 251.5 81.5Q280 102 306.5 136.0Q333 170 355.5 211.5Q378 253 395 295L450 485Q454 499 463.0 507.5Q472 516 495 516Q527 516 533.5 506.5Q540 497 534 479L459 200Q455 183 451.0 159.5Q447 136 448.5 113.0Q450 90 461.5 75.5Q473 61 500 61Q532 61 563.5 82.0Q595 103 621.5 137.5Q648 172 668.5 215.0Q689 258 701.0 303.5Q713 349 713 390Q713 400 712.5 412.0Q712 424 710.5 437.5Q709 451 705 464Q701 482 704.5 494.5Q708 507 718.0 513.0Q728 519 743 519Q762 519 773.5 508.0Q785 497 790 471Q794 461 796.0 450.0Q798 439 798.5 428.0Q799 417 799 405Q799 351 783.5 292.5Q768 234 739.5 178.5Q711 123 671.5 78.5Q632 34 583.5 7.5Q535 -19 479 -19Q434 -19 407.5 -1.0Q381 17 369.5 46.5Q358 76 357 112Q333 73 304.5 43.5Q276 14 243.0 -2.5Q210 -19 173 -19Z" transform="translate(167.47199999999998, 72) scale(0.072, -0.072)" /><path d="M65 -15Q48 -15 34.5 -8.0Q21 -1 27 17L161 484Q167 503 176.5 509.0Q186 515 205 515Q235 515 244.0 506.0Q253 497 247 477L200 316Q230 365 260.5 403.0Q291 441 320.5 467.0Q350 493 377.0 506.0Q404 519 426 519Q453 519 473.5 506.0Q494 493 506 475Q514 465 512.0 453.5Q510 442 500 431Q489 420 479.0 415.0Q469 410 461 419Q451 427 439.0 433.0Q427 439 416 439Q390 439 353.0 410.5Q316 382 275.5 329.5Q235 277 194.5 205.5Q154 134 121 49L112 11Q109 -2 98.5 -8.5Q88 -15 65 -15Z" transform="translate(229.03199999999998, 72) scale(0.072, -0.072)" /><path d="M127 -15Q72 -15 57.0 27.5Q42 70 66 152L161 484Q167 503 176.5 509.0Q186 515 205 515Q235 515 244.0 506.0Q253 497 247 477L138 103Q132 82 134.5 71.5Q137 61 150 61Q158 61 167.0 67.0Q176 73 186.5 85.0Q197 97 213 115Q220 125 228.0 127.0Q236 129 248 121Q263 112 267.0 102.0Q271 92 265 82Q245 49 223.5 27.0Q202 5 178.0 -5.0Q154 -15 127 -15ZM260 669Q239 669 225.0 682.5Q211 696 211 721Q211 749 228.0 772.0Q245 795 281 795Q303 795 317.0 782.0Q331 769 331 743Q331 715 314.0 692.0Q297 669 260 669Z" transform="translate(261.71999999999997, 72) scale(0.072, -0.072)" /><path d="M162 -15Q123 -15 99.5 3.0Q76 21 71.0 57.0Q66 93 82 145L160 420H84Q73 420 68.5 430.0Q64 440 69 460Q74 480 83.5 490.0Q93 500 105 500H184L242 699Q248 718 257.5 724.0Q267 730 287 730Q317 730 326.0 721.0Q335 712 328 692L271 500H398Q409 500 413.5 490.5Q418 481 413 460Q409 441 399.0 430.5Q389 420 378 420H248L161 125Q151 91 156.5 76.0Q162 61 180 61Q200 61 226.5 78.0Q253 95 280 133Q289 142 298.0 143.5Q307 145 322 136Q337 128 339.5 118.0Q342 108 338 100Q326 78 301.5 51.0Q277 24 242.0 4.5Q207 -15 162 -15Z" transform="translate(283.32, 72) scale(0.072, -0.072)" /><path d="M227 -19Q166 -19 127.0 6.0Q88 31 69.5 74.5Q51 118 51 171Q51 230 71.5 291.5Q92 353 131.0 404.5Q170 456 227.5 487.5Q285 519 359 519Q407 519 438.5 504.0Q470 489 486.0 462.5Q502 436 502 399Q502 357 477.0 324.0Q452 291 410.0 265.0Q368 239 314.5 220.0Q261 201 205.0 188.5Q149 176 96 168L103 238Q137 244 178.0 252.5Q219 261 260.0 273.0Q301 285 335.5 302.0Q370 319 390.5 341.0Q411 363 411 392Q411 417 393.5 428.5Q376 440 348 440Q301 440 262.0 416.0Q223 392 196.5 353.0Q170 314 155.0 268.0Q140 222 140 178Q140 143 150.5 116.0Q161 89 182.5 75.0Q204 61 238 61Q272 61 299.0 74.5Q326 88 350.0 110.5Q374 133 397 159Q409 173 424.5 169.5Q440 166 451 155Q461 144 462.5 132.0Q464 120 453 105Q416 58 378.0 31.0Q340 4 302.0 -7.5Q264 -19 227 -19Z" transform="translate(311.256, 72) scale(0.072, -0.072)" /><path d="M-6 -14Q-32 -14 -40.0 1.0Q-48 16 -34 38L554 975Q568 998 582.0 1006.5Q596 1015 621 1015Q640 1015 651.5 1005.5Q663 996 665 965L741 31Q744 11 732.5 -1.5Q721 -14 695 -14Q673 -14 666.0 -5.5Q659 3 656 23L636 283H218L57 26Q41 0 30.5 -7.0Q20 -14 -6 -14ZM269 363H630L587 875Z" transform="translate(370.728, 72) scale(0.072, -0.072)" /><path d="M336 -19Q270 -19 225.5 4.0Q181 27 158.0 72.5Q135 118 135.0 183.0Q135 248 159 332L343 988Q348 1002 359.5 1008.5Q371 1015 394 1015Q417 1015 428.0 1008.0Q439 1001 435 985L245 322Q226 256 223.5 207.5Q221 159 234.0 128.0Q247 97 274.5 81.5Q302 66 343 66Q386 66 431.0 82.0Q476 98 522.0 129.5Q568 161 615.5 208.0Q663 255 710.5 317.0Q758 379 807 456L958 988Q963 1002 975.5 1008.5Q988 1015 1009 1015Q1031 1015 1042.0 1007.0Q1053 999 1048 985L771 13Q767 -1 754.5 -7.5Q742 -14 720 -14Q698 -14 687.5 -6.0Q677 2 681 14L750 258Q702 192 652.0 140.0Q602 88 550.0 53.0Q498 18 444.5 -0.5Q391 -19 336 -19Z" transform="translate(430.704, 72) scale(0.072, -0.072)" /><path d="M112 -14Q68 -14 76 14L356 988Q361 1002 373.5 1008.5Q386 1015 407 1015Q425 1015 435.0 1008.5Q445 1002 450 988L728 161L967 988Q972 1002 984.5 1008.5Q997 1015 1018 1015Q1064 1015 1054 988L774 14Q771 0 758.0 -7.0Q745 -14 724 -14Q708 -14 700.0 -9.0Q692 -4 687 14L406 851L163 14Q159 0 146.5 -7.0Q134 -14 112 -14Z" transform="translate(523.008, 72) scale(0.072, -0.072)" /><path d="M348 -19Q298 -19 253.5 -6.0Q209 7 172.0 28.5Q135 50 105.5 78.0Q76 106 53 136Q45 148 49.5 158.5Q54 169 65 178Q79 190 90.0 193.0Q101 196 111 184Q137 154 172.0 127.5Q207 101 251.5 83.5Q296 66 348 66Q403 66 449.5 79.5Q496 93 530.5 119.0Q565 145 584.0 184.0Q603 223 603 273Q603 306 592.5 333.5Q582 361 561.0 384.5Q540 408 510.0 429.0Q480 450 441 471Q406 490 374.0 510.5Q342 531 315.5 555.0Q289 579 269.5 607.5Q250 636 239.0 672.0Q228 708 228 752Q228 810 250.0 858.5Q272 907 314.0 942.0Q356 977 414.0 996.0Q472 1015 543 1015Q600 1015 646.0 999.0Q692 983 730.0 956.0Q768 929 800 897Q811 886 808.5 875.0Q806 864 792 852Q781 840 769.5 838.0Q758 836 747 844Q721 867 692.5 886.5Q664 906 628.5 918.0Q593 930 542 930Q494 930 453.5 918.5Q413 907 383.5 885.0Q354 863 337.5 829.5Q321 796 321 752Q321 716 330.5 688.0Q340 660 360.0 637.0Q380 614 411.5 592.5Q443 571 488 548Q535 524 572.5 496.5Q610 469 638.0 436.0Q666 403 680.5 363.0Q695 323 695 274Q695 209 669.5 155.5Q644 102 596.5 63.0Q549 24 486.0 2.5Q423 -19 348 -19Z" transform="translate(594.0, 72) scale(0.072, -0.072)" /><path d="M316 -14Q297 -14 285.0 -4.0Q273 6 272 37L229 970Q228 990 239.5 1002.0Q251 1014 276 1015Q299 1015 306.5 1008.0Q314 1001 315 981L349 135L812 975Q826 1002 838.5 1008.5Q851 1015 876 1015Q899 1015 907.0 1007.0Q915 999 916 979L953 133L1418 977Q1432 1002 1444.5 1008.5Q1457 1015 1481 1015Q1507 1014 1514.0 999.0Q1521 984 1508 964L987 26Q974 4 959.0 -5.0Q944 -14 919 -14Q900 -14 888.5 -4.0Q877 6 876 37L836 847L383 26Q371 4 355.5 -5.0Q340 -14 316 -14Z" transform="translate(649.008, 72) scale(0.072, -0.072)" /></g></svg>
